data/kalnia-glaze.svg

<svg width="89.586" height="18.83" viewBox="0 0 89.586 18.83" xmlns="http://www.w3.org/2000/svg"><path transform="translate(0 14.63) scale(.014 -.014)" d="m617-15q-26 0-48.5 13.5t-45.5 45.5-52 87q-18 35-37.5 65t-42 56-50 48.5-60.5 43.5h-51v-321l61-13v-10h-237v10l61 13v662l-61 13v10h176v-350q16 0 31 1t30 2q31 3 59 20t52.5 43.5 44.5 56.5q17 28 29.5 56.5t19 54.5 6.5 46q0 27-18 43.5t-55 16.5v10h240v-10l-59-13q0-33-12-69.5t-32.5-73.5-49.5-69q-29-33-63.5-58t-67-41-60.5-20v-5q46-2 81.5-12t63.5-29.5 50-50 42-73.5q26-58 45-92.5t36-52 33-22.5q10-3 21 0v-10q-13-10-27-14.5t-27.5-6-25.5-1.5zm-141 711q19-6 28.5-22t9.5-36q0-22-7-49.5t-20-56.5-30-56q-24-38-52.5-65t-61.5-42q41 11 84.5 40t80.5 72q42 49 67 105t23 110zm-148-360q33-28 59.5-58.5t49.5-65 44-75.5q27-52 49-82.5t43.5-44 43.5-13.5q41 0 61 12-2 0-6 1t-8 2q-16 6-33 24.5t-36.5 53.5-43.5 89q-23 52-51.5 85t-66.5 50.5-91 21.5zm-201-324h92v684h-92z"/><path transform="translate(9.912 14.63) scale(.014 -.014)" d="m315 515q58 0 99.5-13.5t68.5-41.5 39-70.5 12-100.5v-254q0-15 6.5-22t17.5-7q12 0 27.5 7t30.5 18v-11q-12-11-28.5-19t-34.5-12-35-4q-44 0-69 23.5t-25 76.5q0 20 0 29.5t0 14.5 0 11l-8 6q-19-38-45.5-68t-59-50.5-66.5-31.5-68-11q-37 0-67 12.5t-48 37-18 60.5q0 85 97 129.5t283 44.5q0 85-13 134.5t-45 71.5-88 22q-37 0-65.5-6.5t-44-15.5-15.5-16q0-5 9.5-10.5t34.5-15.5q46-18 46-51 0-30-26-45.5t-63-15.5q-36 0-61.5 16t-25.5 46q0 24 20.5 47.5t55 42.5 79 30.5 93.5 11.5zm109-258q-95 0-157-20.5t-92-55.5-30-78q0-26 10.5-42.5t28.5-24.5 41-8q25 0 53.5 9.5t56.5 29.5 51.5 50.5 37.5 72.5zm-247-260q37 0 73.5 12.5t66.5 34.5q-24-13-49-20t-48-7q-29 0-49 11t-29.5 31-9.5 44q0 57 47 96.5t129 53.5q-119-11-185.5-52.5t-66.5-105.5q0-30 14.5-52t42-34 64.5-12zm155 506q23-6 41-18t30-32q17-26 25.5-66.5t8.5-97.5v-212q0-25 10.5-41t27-24.5 32.5-10.5q8-2 16-2t15 1q-9 5-12.5 13.5t-3.5 23.5v252q0 64-17.5 108t-52.5 70q-18 12-38.5 19.5t-41.5 11-40 5.5zm-178-169q35 0 55.5 13.5t20.5 34.5q0 19-15.5 28.5t-33.5 16.5q-10 3-20 8t-13 11q-7 8-4 15-19-10-33.5-23.5t-23-27.5-8.5-27q0-22 20.5-35.5t54.5-13.5z"/><path transform="translate(18.816 14.63) scale(.014 -.014)" d="m210 20 55-10v-10h-221v10l56 10v680h-62v11l172 34zm-99-8h87v718l-87-13z"/><path transform="translate(22.988 14.63) scale(.014 -.014)" d="m645 10v-10h-228v10l57 10v334q0 60-21 90t-61 30q-27 0-53.5-17t-51-44-44.5-58-33-59v-276l57-10v-10h-222v10l55 10v450h-61v11l171 34v-164l8-7q28 52 61.5 90.5t74 59.5 86.5 21q40 0 67-12.5t44-35.5 25-55 8-73v-319zm-533 2h87v488l-87-13zm373 0h87v327q0 55-13.5 91.5t-42.5 54.5-76 18q-39 0-76.5-17t-72.5-54q28 27 56.5 39t54.5 11q43-4 63-36t20-92z"/><path transform="translate(32.396 14.63) scale(.014 -.014)" d="m149 596q-26 0-46 8t-31 22-11 32q0 19 11 32.5t31 21.5 46 8 46-8 31.5-21.5 11.5-32.5q0-18-11.5-32t-31.5-22-46-8zm-105-596v10l56 10v450h-62v11l172 34v-495l55-10v-10zm67 12h87v488l-87-13zm38 598q22 0 38.5 6t26 17 9.5 25-9.5 25-26 17-38.5 6q-21 0-38-6t-27-17-10-25 10-25 27-17 38-6z"/><path transform="translate(36.722 14.63) scale(.014 -.014)" d="m315 515q58 0 99.5-13.5t68.5-41.5 39-70.5 12-100.5v-254q0-15 6.5-22t17.5-7q12 0 27.5 7t30.5 18v-11q-12-11-28.5-19t-34.5-12-35-4q-44 0-69 23.5t-25 76.5q0 20 0 29.5t0 14.5 0 11l-8 6q-19-38-45.5-68t-59-50.5-66.5-31.5-68-11q-37 0-67 12.5t-48 37-18 60.5q0 85 97 129.5t283 44.5q0 85-13 134.5t-45 71.5-88 22q-37 0-65.5-6.5t-44-15.5-15.5-16q0-5 9.5-10.5t34.5-15.5q46-18 46-51 0-30-26-45.5t-63-15.5q-36 0-61.5 16t-25.5 46q0 24 20.5 47.5t55 42.5 79 30.5 93.5 11.5zm109-258q-95 0-157-20.5t-92-55.5-30-78q0-26 10.5-42.5t28.5-24.5 41-8q25 0 53.5 9.5t56.5 29.5 51.5 50.5 37.5 72.5zm-247-260q37 0 73.5 12.5t66.5 34.5q-24-13-49-20t-48-7q-29 0-49 11t-29.5 31-9.5 44q0 57 47 96.5t129 53.5q-119-11-185.5-52.5t-66.5-105.5q0-30 14.5-52t42-34 64.5-12zm155 506q23-6 41-18t30-32q17-26 25.5-66.5t8.5-97.5v-212q0-25 10.5-41t27-24.5 32.5-10.5q8-2 16-2t15 1q-9 5-12.5 13.5t-3.5 23.5v252q0 64-17.5 108t-52.5 70q-18 12-38.5 19.5t-41.5 11-40 5.5zm-178-169q35 0 55.5 13.5t20.5 34.5q0 19-15.5 28.5t-33.5 16.5q-10 3-20 8t-13 11q-7 8-4 15-19-10-33.5-23.5t-23-27.5-8.5-27q0-22 20.5-35.5t54.5-13.5z"/><path transform="translate(49.826 14.63) scale(.014 -.014)" d="m440 296v10h229v-224q-27-26-60.5-44t-70-29.5-73-17.5-70.5-6q-59 0-111 16.5t-93.5 48-71 77.5-45.5 104.5-16 130.5q0 82 24.5 148.5t69 114 107 73 139.5 25.5q44 0 83-6.5t74-18.5 65-28 55-35l-53-251h-17l-15 123q-7 55-25 94t-45.5 62.5-64 34.5-79.5 11q-46 0-83.5-24t-64.5-67-41.5-100-14.5-123q0-57 10.5-114t30.5-107.5 51-89.5 73-61.5 93-22.5q28 0 59.5 6.5t65.5 20.5v250zm-87-294q-59 21-102.5 75.5t-67 136-23.5 181.5q0 66 14 124t39.5 101.5 60.5 65.5q-96-33-150-117.5t-54-206.5q0-79 20-142.5t57-109.5 89.5-73.5 116.5-34.5zm213 33q30 6 53 19t39 33v207h-92zm48 368 46 226q-17 12-38 23t-44 20.5-47 16.5-50 11q34-12 60.5-40.5t43.5-68.5 22-88z"/><path transform="translate(60.27 14.63) scale(.014 -.014)" d="m210 20 55-10v-10h-221v10l56 10v680h-62v11l172 34zm-99-8h87v718l-87-13z"/><path transform="translate(64.442 14.63) scale(.014 -.014)" d="m315 515q58 0 99.5-13.5t68.5-41.5 39-70.5 12-100.5v-254q0-15 6.5-22t17.5-7q12 0 27.5 7t30.5 18v-11q-12-11-28.5-19t-34.5-12-35-4q-44 0-69 23.5t-25 76.5q0 20 0 29.5t0 14.5 0 11l-8 6q-19-38-45.5-68t-59-50.5-66.5-31.5-68-11q-37 0-67 12.5t-48 37-18 60.5q0 85 97 129.5t283 44.5q0 85-13 134.5t-45 71.5-88 22q-37 0-65.5-6.5t-44-15.5-15.5-16q0-5 9.5-10.5t34.5-15.5q46-18 46-51 0-30-26-45.5t-63-15.5q-36 0-61.5 16t-25.5 46q0 24 20.5 47.5t55 42.5 79 30.5 93.5 11.5zm109-258q-95 0-157-20.5t-92-55.5-30-78q0-26 10.5-42.5t28.5-24.5 41-8q25 0 53.5 9.5t56.5 29.5 51.5 50.5 37.5 72.5zm-247-260q37 0 73.5 12.5t66.5 34.5q-24-13-49-20t-48-7q-29 0-49 11t-29.5 31-9.5 44q0 57 47 96.5t129 53.5q-119-11-185.5-52.5t-66.5-105.5q0-30 14.5-52t42-34 64.5-12zm155 506q23-6 41-18t30-32q17-26 25.5-66.5t8.5-97.5v-212q0-25 10.5-41t27-24.5 32.5-10.5q8-2 16-2t15 1q-9 5-12.5 13.5t-3.5 23.5v252q0 64-17.5 108t-52.5 70q-18 12-38.5 19.5t-41.5 11-40 5.5zm-178-169q35 0 55.5 13.5t20.5 34.5q0 19-15.5 28.5t-33.5 16.5q-10 3-20 8t-13 11q-7 8-4 15-19-10-33.5-23.5t-23-27.5-8.5-27q0-22 20.5-35.5t54.5-13.5z"/><path transform="translate(73.346 14.63) scale(.014 -.014)" d="m34 0 350 485h-170q-47 0-76.5-23.5t-32.5-80.5l-3-81h-10l-40 200h467l-352-485h195q37 0 61.5 22t27.5 77l9 73h10l47-187zm65 325-3 57q0 33 8 54t22 34 31 18h-91zm-43-313h94l346 476h-94zm351 0h96l-38 150-2-50q-1-48-16.5-70t-39.5-30z"/><path transform="translate(81.144 14.63) scale(.014 -.014)" d="m312 515q80 0 132.5-32t79-86.5 26.5-124.5h-395v10l293 11q0 66-15 112.5t-45 71.5-76 25q-47 0-82-27t-54-81-19-134q0-47 13-89.5t37-76 59-52.5 80-19q30 0 59 8t54 23.5 45.5 38 35.5 52.5l10-10q-22-44-50-73t-61-46-68-24-71-7q-60 0-107 21t-80 56.5-50.5 82.5-17.5 100q0 61 20 110.5t55.5 85.5 84.5 55 107 19zm-255-270q0-72 31.5-128t86.5-88 125-32q41 0 71.5 6.5t56.5 21.5q-16-7-37-10.5t-45-3.5q-48 0-85.5 20.5t-63 55.5-38.5 80-13 93q0 80 19.5 136.5t56.5 86.5q-50-16-87.5-49t-57.5-80.5-20-108.5zm403 38h79q0 51-16 90.5t-46.5 67.5-74.5 42q27-27 42.5-74t15.5-126z"/></svg>

<?xml version="1.0" encoding="utf-8" ?>
<svg baseProfile="tiny" height="100%" version="1.2" width="100%" xmlns="http://www.w3.org/2000/svg" xmlns:ev="http://www.w3.org/2001/xml-events" xmlns:xlink="http://www.w3.org/1999/xlink"><defs /><g><path d="M617 -15Q591 -15 568.5 -1.5Q546 12 523.0 44.0Q500 76 471 131Q453 166 433.5 196.0Q414 226 391.5 252.0Q369 278 341.5 300.5Q314 323 281 344H230V23L291 10V0H54V10L115 23V685L54 698V708H230V358Q246 358 261.0 359.0Q276 360 291 361Q322 364 350.0 381.0Q378 398 402.5 424.5Q427 451 447 481Q464 509 476.5 537.5Q489 566 495.5 592.0Q502 618 502 638Q502 665 484.0 681.5Q466 698 429 698V708H669V698L610 685Q610 652 598.0 615.5Q586 579 565.5 542.0Q545 505 516 473Q487 440 452.5 415.0Q418 390 385.5 374.0Q353 358 325 354V349Q371 347 406.5 337.0Q442 327 470.0 307.5Q498 288 520.0 257.5Q542 227 562 184Q588 126 607.0 91.5Q626 57 643.0 39.5Q660 22 676 17Q686 14 697 17V7Q684 -3 670.0 -7.5Q656 -12 642.5 -13.5Q629 -15 617 -15ZM476 696Q495 690 504.5 674.0Q514 658 514 638Q514 616 507.0 588.5Q500 561 487.0 532.0Q474 503 457 476Q433 438 404.5 411.0Q376 384 343 369Q384 380 427.5 409.0Q471 438 508 481Q550 530 575.0 586.0Q600 642 598 696ZM328 336Q361 308 387.5 277.5Q414 247 437.0 212.5Q460 178 481 137Q508 85 530.0 54.5Q552 24 573.5 10.5Q595 -3 617 -3Q658 -3 678 9Q676 9 672.0 10.0Q668 11 664 12Q648 18 631.0 36.5Q614 55 594.5 90.0Q575 125 551 179Q528 231 499.5 264.0Q471 297 433.0 314.5Q395 332 342 336ZM127 12H219V696H127Z" transform="translate(0.0, 72) scale(0.072, -0.072)" /><path d="M315 515Q373 515 414.5 501.5Q456 488 483.0 460.0Q510 432 522.0 389.5Q534 347 534 289V35Q534 20 540.5 13.0Q547 6 558 6Q570 6 585.5 13.0Q601 20 616 31V20Q604 9 587.5 1.0Q571 -7 553.0 -11.0Q535 -15 518 -15Q474 -15 449.0 8.5Q424 32 424 85Q424 105 424.0 114.5Q424 124 424.0 129.0Q424 134 424 140L416 146Q397 108 370.5 78.0Q344 48 311.5 27.5Q279 7 245.0 -4.0Q211 -15 177 -15Q140 -15 110.0 -2.5Q80 10 62.0 34.5Q44 59 44 95Q44 180 141.0 224.5Q238 269 424 269Q424 354 411.0 403.5Q398 453 366.0 475.0Q334 497 278 497Q241 497 212.5 490.5Q184 484 168.5 475.0Q153 466 153 459Q153 454 162.5 448.5Q172 443 197 433Q243 415 243 382Q243 352 217.0 336.5Q191 321 154 321Q118 321 92.5 337.0Q67 353 67 383Q67 407 87.5 430.5Q108 454 142.5 473.0Q177 492 221.5 503.5Q266 515 315 515ZM424 257Q329 257 267.0 236.5Q205 216 175.0 181.0Q145 146 145 103Q145 77 155.5 60.5Q166 44 184.0 36.0Q202 28 225 28Q250 28 278.5 37.5Q307 47 335.0 67.0Q363 87 386.5 117.5Q410 148 424 190ZM177 -3Q214 -3 250.5 9.5Q287 22 317 44Q293 31 268.0 24.0Q243 17 220 17Q191 17 171.0 28.0Q151 39 141.5 59.0Q132 79 132 103Q132 160 179.0 199.5Q226 239 308 253Q189 242 122.5 200.5Q56 159 56 95Q56 65 70.5 43.0Q85 21 112.5 9.0Q140 -3 177 -3ZM332 503Q355 497 373.0 485.0Q391 473 403 453Q420 427 428.5 386.5Q437 346 437 289V77Q437 52 447.5 36.0Q458 20 474.5 11.5Q491 3 507 1Q515 -1 523.0 -1.0Q531 -1 538 0Q529 5 525.5 13.5Q522 22 522 37V289Q522 353 504.5 397.0Q487 441 452 467Q434 479 413.5 486.5Q393 494 372.0 497.5Q351 501 332 503ZM154 334Q189 334 209.5 347.5Q230 361 230 382Q230 401 214.5 410.5Q199 420 181 427Q171 430 161.0 435.0Q151 440 148 446Q141 454 144 461Q125 451 110.5 437.5Q96 424 87.5 410.0Q79 396 79 383Q79 361 99.5 347.5Q120 334 154 334Z" transform="translate(50.976, 72) scale(0.072, -0.072)" /><path d="M210 20 265 10V0H44V10L100 20V700H38V711L210 745ZM111 12H198V730L111 717Z" transform="translate(96.768, 72) scale(0.072, -0.072)" /><path d="M645 10V0H417V10L474 20V354Q474 414 453.0 444.0Q432 474 392 474Q365 474 338.5 457.0Q312 440 287.5 413.0Q263 386 243.0 355.0Q223 324 210 296V20L267 10V0H45V10L100 20V470H39V481L210 515V351L218 344Q246 396 279.5 434.5Q313 473 353.5 494.0Q394 515 440 515Q480 515 507.0 502.5Q534 490 551.0 467.0Q568 444 576.0 412.0Q584 380 584 339V20ZM112 12H199V500L112 487ZM485 12H572V339Q572 394 558.5 430.5Q545 467 516.0 485.0Q487 503 440 503Q401 503 363.5 486.0Q326 469 291 432Q319 459 347.5 471.0Q376 483 402 482Q445 478 465.0 446.0Q485 414 485 354Z" transform="translate(118.224, 72) scale(0.072, -0.072)" /><path d="M149 596Q123 596 103.0 604.0Q83 612 72.0 626.0Q61 640 61 658Q61 677 72.0 690.5Q83 704 103.0 712.0Q123 720 149 720Q175 720 195.0 712.0Q215 704 226.5 690.5Q238 677 238 658Q238 640 226.5 626.0Q215 612 195.0 604.0Q175 596 149 596ZM44 0V10L100 20V470H38V481L210 515V20L265 10V0ZM111 12H198V500L111 487ZM149 610Q171 610 187.5 616.0Q204 622 213.5 633.0Q223 644 223 658Q223 672 213.5 683.0Q204 694 187.5 700.0Q171 706 149 706Q128 706 111.0 700.0Q94 694 84.0 683.0Q74 672 74 658Q74 644 84.0 633.0Q94 622 111.0 616.0Q128 610 149 610Z" transform="translate(166.608, 72) scale(0.072, -0.072)" /><path d="M315 515Q373 515 414.5 501.5Q456 488 483.0 460.0Q510 432 522.0 389.5Q534 347 534 289V35Q534 20 540.5 13.0Q547 6 558 6Q570 6 585.5 13.0Q601 20 616 31V20Q604 9 587.5 1.0Q571 -7 553.0 -11.0Q535 -15 518 -15Q474 -15 449.0 8.5Q424 32 424 85Q424 105 424.0 114.5Q424 124 424.0 129.0Q424 134 424 140L416 146Q397 108 370.5 78.0Q344 48 311.5 27.5Q279 7 245.0 -4.0Q211 -15 177 -15Q140 -15 110.0 -2.5Q80 10 62.0 34.5Q44 59 44 95Q44 180 141.0 224.5Q238 269 424 269Q424 354 411.0 403.5Q398 453 366.0 475.0Q334 497 278 497Q241 497 212.5 490.5Q184 484 168.5 475.0Q153 466 153 459Q153 454 162.5 448.5Q172 443 197 433Q243 415 243 382Q243 352 217.0 336.5Q191 321 154 321Q118 321 92.5 337.0Q67 353 67 383Q67 407 87.5 430.5Q108 454 142.5 473.0Q177 492 221.5 503.5Q266 515 315 515ZM424 257Q329 257 267.0 236.5Q205 216 175.0 181.0Q145 146 145 103Q145 77 155.5 60.5Q166 44 184.0 36.0Q202 28 225 28Q250 28 278.5 37.5Q307 47 335.0 67.0Q363 87 386.5 117.5Q410 148 424 190ZM177 -3Q214 -3 250.5 9.5Q287 22 317 44Q293 31 268.0 24.0Q243 17 220 17Q191 17 171.0 28.0Q151 39 141.5 59.0Q132 79 132 103Q132 160 179.0 199.5Q226 239 308 253Q189 242 122.5 200.5Q56 159 56 95Q56 65 70.5 43.0Q85 21 112.5 9.0Q140 -3 177 -3ZM332 503Q355 497 373.0 485.0Q391 473 403 453Q420 427 428.5 386.5Q437 346 437 289V77Q437 52 447.5 36.0Q458 20 474.5 11.5Q491 3 507 1Q515 -1 523.0 -1.0Q531 -1 538 0Q529 5 525.5 13.5Q522 22 522 37V289Q522 353 504.5 397.0Q487 441 452 467Q434 479 413.5 486.5Q393 494 372.0 497.5Q351 501 332 503ZM154 334Q189 334 209.5 347.5Q230 361 230 382Q230 401 214.5 410.5Q199 420 181 427Q171 430 161.0 435.0Q151 440 148 446Q141 454 144 461Q125 451 110.5 437.5Q96 424 87.5 410.0Q79 396 79 383Q79 361 99.5 347.5Q120 334 154 334Z" transform="translate(188.856, 72) scale(0.072, -0.072)" /><path d="M440 296V306H669V82Q642 56 608.5 38.0Q575 20 538.5 8.5Q502 -3 465.5 -9.0Q429 -15 395 -15Q336 -15 284.0 1.5Q232 18 190.5 49.5Q149 81 119.5 127.0Q90 173 74.0 231.5Q58 290 58 362Q58 444 82.5 510.5Q107 577 151.5 624.5Q196 672 258.5 697.5Q321 723 398 723Q442 723 481.0 716.5Q520 710 555.0 698.0Q590 686 620.0 670.0Q650 654 675 635L622 384H605L590 507Q583 562 565.0 601.0Q547 640 519.5 663.5Q492 687 455.5 698.0Q419 709 376 709Q330 709 292.5 685.0Q255 661 228.0 618.0Q201 575 186.5 518.0Q172 461 172 395Q172 338 182.5 281.0Q193 224 213.0 173.5Q233 123 264.0 84.0Q295 45 337.0 22.5Q379 0 430 0Q458 0 489.5 6.5Q521 13 555 27V277ZM353 2Q294 23 250.5 77.5Q207 132 183.5 213.5Q160 295 160 395Q160 461 174.0 519.0Q188 577 213.5 620.5Q239 664 274 686Q178 653 124.0 568.5Q70 484 70 362Q70 283 90.0 219.5Q110 156 147.0 110.0Q184 64 236.5 36.5Q289 9 353 2ZM566 35Q596 41 619.0 54.0Q642 67 658 87V294H566ZM614 403 660 629Q643 641 622.0 652.0Q601 663 578.0 672.5Q555 682 531.0 689.0Q507 696 481 700Q515 688 541.5 659.5Q568 631 585.0 591.0Q602 551 607 503Z" transform="translate(256.248, 72) scale(0.072, -0.072)" /><path d="M210 20 265 10V0H44V10L100 20V700H38V711L210 745ZM111 12H198V730L111 717Z" transform="translate(309.96, 72) scale(0.072, -0.072)" /><path d="M315 515Q373 515 414.5 501.5Q456 488 483.0 460.0Q510 432 522.0 389.5Q534 347 534 289V35Q534 20 540.5 13.0Q547 6 558 6Q570 6 585.5 13.0Q601 20 616 31V20Q604 9 587.5 1.0Q571 -7 553.0 -11.0Q535 -15 518 -15Q474 -15 449.0 8.5Q424 32 424 85Q424 105 424.0 114.5Q424 124 424.0 129.0Q424 134 424 140L416 146Q397 108 370.5 78.0Q344 48 311.5 27.5Q279 7 245.0 -4.0Q211 -15 177 -15Q140 -15 110.0 -2.5Q80 10 62.0 34.5Q44 59 44 95Q44 180 141.0 224.5Q238 269 424 269Q424 354 411.0 403.5Q398 453 366.0 475.0Q334 497 278 497Q241 497 212.5 490.5Q184 484 168.5 475.0Q153 466 153 459Q153 454 162.5 448.5Q172 443 197 433Q243 415 243 382Q243 352 217.0 336.5Q191 321 154 321Q118 321 92.5 337.0Q67 353 67 383Q67 407 87.5 430.5Q108 454 142.5 473.0Q177 492 221.5 503.5Q266 515 315 515ZM424 257Q329 257 267.0 236.5Q205 216 175.0 181.0Q145 146 145 103Q145 77 155.5 60.5Q166 44 184.0 36.0Q202 28 225 28Q250 28 278.5 37.5Q307 47 335.0 67.0Q363 87 386.5 117.5Q410 148 424 190ZM177 -3Q214 -3 250.5 9.5Q287 22 317 44Q293 31 268.0 24.0Q243 17 220 17Q191 17 171.0 28.0Q151 39 141.5 59.0Q132 79 132 103Q132 160 179.0 199.5Q226 239 308 253Q189 242 122.5 200.5Q56 159 56 95Q56 65 70.5 43.0Q85 21 112.5 9.0Q140 -3 177 -3ZM332 503Q355 497 373.0 485.0Q391 473 403 453Q420 427 428.5 386.5Q437 346 437 289V77Q437 52 447.5 36.0Q458 20 474.5 11.5Q491 3 507 1Q515 -1 523.0 -1.0Q531 -1 538 0Q529 5 525.5 13.5Q522 22 522 37V289Q522 353 504.5 397.0Q487 441 452 467Q434 479 413.5 486.5Q393 494 372.0 497.5Q351 501 332 503ZM154 334Q189 334 209.5 347.5Q230 361 230 382Q230 401 214.5 410.5Q199 420 181 427Q171 430 161.0 435.0Q151 440 148 446Q141 454 144 461Q125 451 110.5 437.5Q96 424 87.5 410.0Q79 396 79 383Q79 361 99.5 347.5Q120 334 154 334Z" transform="translate(331.416, 72) scale(0.072, -0.072)" /><path d="M34 0 384 485H214Q167 485 137.5 461.5Q108 438 105 381L102 300H92L52 500H519L167 15H362Q399 15 423.5 37.0Q448 59 451 114L460 187H470L517 0ZM99 325 96 382Q96 415 104.0 436.0Q112 457 126.0 470.0Q140 483 157 488H66ZM56 12H150L496 488H402ZM407 12H503L465 162L463 112Q462 64 446.5 42.0Q431 20 407 12Z" transform="translate(377.20799999999997, 72) scale(0.072, -0.072)" /><path d="M312 515Q392 515 444.5 483.0Q497 451 523.5 396.5Q550 342 550 272H155V282L448 293Q448 359 433.0 405.5Q418 452 388.0 477.0Q358 502 312 502Q265 502 230.0 475.0Q195 448 176.0 394.0Q157 340 157 260Q157 213 170.0 170.5Q183 128 207.0 94.5Q231 61 266.0 42.0Q301 23 346 23Q376 23 405.0 31.0Q434 39 459.0 54.5Q484 70 504.5 92.5Q525 115 540 145L550 135Q528 91 500.0 62.0Q472 33 439.0 16.0Q406 -1 371.0 -8.0Q336 -15 300 -15Q240 -15 193.0 6.0Q146 27 113.0 62.5Q80 98 62.5 145.0Q45 192 45 245Q45 306 65.0 355.5Q85 405 120.5 441.0Q156 477 205.0 496.0Q254 515 312 515ZM57 245Q57 173 88.5 117.0Q120 61 175.0 29.0Q230 -3 300 -3Q341 -3 371.5 3.5Q402 10 428 25Q412 18 391.0 14.5Q370 11 346 11Q298 11 260.5 31.5Q223 52 197.5 87.0Q172 122 159.0 167.0Q146 212 146 260Q146 340 165.5 396.5Q185 453 222 483Q172 467 134.5 434.0Q97 401 77.0 353.5Q57 306 57 245ZM460 283H539Q539 334 523.0 373.5Q507 413 476.5 441.0Q446 469 402 483Q429 456 444.5 409.0Q460 362 460 283Z" transform="translate(417.31199999999995, 72) scale(0.072, -0.072)" /></g></svg>
